X: 20691
T: Johnnie Sullivan's
R: reel
M: 4/4
K: Eminor
e|BE E/E/E B2 AB|dBAG FDDc|BE E/E/E B2 AB|dAFA BEE:|
b|ge e/e/e e2 dB|defg agfb|ge e/e/e e2 dB|AdFA BEE
b|ge e/e/e e2 dB|defg agfb|g/a/g fd e/f/g fe|dBAd BEE||

